X:1043
T:Miss Bank's Hornpipe. Roose.1043
B:J.Roose MS, Manchester 1850
Z:Village Music Project 2019 Quinton Cumbes
M:C
L:1/8
Q:1/4=140
K:D
(AG)|FGAF Ddcd|BcdB A2f2|g2eg f2df|edcB AGFE|
FGAF Ddcd|BcdB A2 af|gfed Adce|d2d2d2:|
|:de|f2df e2cd|edcB A2 AG|Fdcd edce|efge dcBA|
GBEG FADF|EFGA Bcde|f2df agfe|d2d2d2:|

